build/images/clock.svg

<?xml version="1.0" encoding="UTF-8"?>
<svg width="43px" height="54px" viewBox="0 0 43 54" version="1.1" xmlns="http://www.w3.org/2000/svg" xmlns:xlink="http://www.w3.org/1999/xlink">
    <!-- Generator: sketchtool 63.1 (101010) - https://sketch.com -->
    <title>3BE868AE-63DB-4CFA-9EC3-ADC79B998587</title>
    <desc>Created with sketchtool.</desc>
    <g id="Page-1" stroke="none" stroke-width="1" fill="none" fill-rule="evenodd">
        <g id="Kupa-shop---design" transform="translate(-1182.000000, -2686.000000)" fill="#1E7960" fill-rule="nonzero">
            <g id="clock-(1)" transform="translate(1182.000000, 2686.000000)">
                <path d="M21.5,49.7982305 C31.0420146,49.7982305 38.804878,41.9957578 38.804878,32.4050625 C38.804878,22.8144727 31.0419098,15.012 21.5,15.012 C11.9580902,15.012 4.19512195,22.8144727 4.19512195,32.4050625 C4.19512195,41.9957578 11.9579854,49.7982305 21.5,49.7982305 Z M36.7073171,32.4050625 C36.7073171,37.4546953 34.2573659,41.939543 30.4900415,44.7240234 L23.050622,32.8708125 L33.018861,28.7120742 C33.5539488,28.4889023 33.8076488,27.8718047 33.585622,27.3338086 C33.3637,26.7956016 32.7498488,26.5402617 32.2150756,26.7638555 L22.5487805,30.7965586 L22.5487805,17.1583945 C30.4146341,17.7017695 36.7073171,24.331957 36.7073171,32.4050625 L36.7073171,32.4050625 Z M20.4512195,17.1583945 L20.4512195,32.6809688 L28.7189659,45.8542266 C26.5699098,47.0239805 24.1108341,47.6889609 21.5,47.6889609 C13.1146854,47.6889609 6.29268293,40.8326484 6.29268293,32.405168 C6.29268293,24.331957 12.5853659,17.7017695 20.4512195,17.1583945 Z" id="Shape"></path>
                <path d="M42.5626585,28.0494141 C42.2805366,26.6625 41.8589268,25.2976289 41.3104146,23.9930859 C40.7713415,22.7125898 40.1043171,21.4775508 39.3282195,20.322668 C38.9914561,19.8221133 38.6319341,19.3356914 38.2537439,18.8638242 L41.3712439,15.4119375 C41.5583463,15.2046914 41.6558829,14.9313164 41.6424585,14.6518242 C41.6290341,14.372332 41.5055927,14.1096094 41.2995073,13.9216641 L37.2670512,10.2429141 C36.8382049,9.851625 36.1751659,9.88410937 35.7860683,10.3149492 L32.5689341,13.8771562 C31.7016976,13.3528711 30.7971244,12.8890195 29.8682195,12.4938281 C28.570878,11.9422266 27.2136512,11.5182422 25.8325122,11.2345312 C25.7564756,11.2189219 25.6800195,11.2045781 25.6036683,11.1898125 L26.4418537,8.66119922 L28.7810537,7.48712109 C29.1364854,7.3085625 29.3658537,6.94226953 29.3658537,6.54275391 L29.3658537,3.25866797 C29.3658537,1.46991797 27.9084683,-2.99760217e-15 26.1290024,-2.99760217e-15 L16.8709976,-2.99760217e-15 C15.0915317,-2.99760217e-15 13.6341463,1.46991797 13.6341463,3.25866797 L13.6341463,6.54275391 C13.6341463,6.94226953 13.8635146,7.30761328 14.2189463,7.48617187 L16.5556293,8.65930078 L17.395178,11.1916055 C17.3196659,11.2061602 17.2432098,11.2189219 17.1680122,11.2344258 C15.7867683,11.5181367 14.4293317,11.9421211 13.1320951,12.4937227 C12.2346537,12.8755195 11.3601805,13.3218633 10.5195829,13.8243164 L7.35016829,10.3149492 C6.96086098,9.8836875 6.29782195,9.85141406 5.86908049,10.2428086 L1.83662439,13.9215586 C1.63053902,14.1095039 1.50720244,14.3721211 1.49367317,14.6517187 C1.4801439,14.9313164 1.57778537,15.2045859 1.76478293,15.4117266 L4.81023171,18.7839844 C4.4084439,19.2805312 4.02742195,19.7939531 3.67178049,20.322668 C2.89568293,21.4775508 2.22865854,22.7125898 1.68958537,23.9930859 C1.14107317,25.2976289 0.719463415,26.6625 0.437341463,28.0494141 C0.146829268,29.4732422 2.98081343e-15,30.9392578 2.98081343e-15,32.4052734 C2.98081343e-15,35.1221484 0.49502439,37.7715234 1.4724878,40.2795703 C1.55114634,40.4809102 1.68643902,40.6508203 1.86473171,40.7709492 C2.14790244,40.9619531 2.51287805,41.0029805 2.83170732,40.8775781 C3.36973171,40.6654805 3.63612195,40.0517578 3.42531707,39.5107031 C2.54434146,37.2483984 2.09756098,34.8574219 2.09756098,32.4052734 C2.09756098,27.1982812 4.11646341,22.3013672 7.77985366,18.6162891 C10.8275049,15.5559023 14.7087268,13.6386914 18.9073098,13.078125 L24.0925854,13.078125 C28.2911683,13.6385859 32.1723902,15.5557969 35.2200415,18.6162891 C38.8835366,22.3003125 40.9012854,27.1972266 40.902439,32.4052734 C40.902439,37.6122656 38.8835366,42.5091797 35.2200415,46.1930977 C31.5535049,49.8760664 26.6808707,51.9052852 21.4998951,51.9052852 C16.6713098,51.9042305 12.0430415,50.110207 8.46774878,46.8512227 C8.27372439,46.6750898 8.02411463,46.5780586 7.76296829,46.5780586 C7.46826098,46.5780586 7.18404146,46.7046211 6.98582195,46.9239961 C6.59777317,47.3553633 6.63028537,48.0240352 7.0581878,48.4142695 C8.01257805,49.2843867 9.04982195,50.0722383 10.1426512,50.7567305 C11.2459683,51.4475508 12.4174561,52.033957 13.6256512,52.5117305 C16.1332854,53.5041914 18.7814561,53.9998945 21.4977976,53.9998945 L21.5,53.9998945 C22.9589585,53.9998945 24.4166585,53.8596211 25.8325122,53.5674727 C27.2137561,53.2837617 28.570878,52.864418 29.8682195,52.3117617 C31.1423829,51.770707 32.3716585,51.1018242 33.5199683,50.3224102 C34.6589439,49.5493242 35.7297488,48.6622266 36.7020732,47.6845312 C37.6752366,46.7067305 38.5583098,45.6304219 39.3281146,44.4871406 C40.1042122,43.3312031 40.7713415,42.0964805 41.3103098,40.8160898 C41.858822,39.5124961 42.2804317,38.1478359 42.5625537,36.7598672 C42.8530659,35.3360391 42.9998952,33.8710781 42.9998952,32.4050625 C42.9998952,30.9391523 42.8531707,29.4732422 42.5626585,28.0494141 L42.5626585,28.0494141 Z M6.29792683,17.1249609 C6.2712878,17.15175 6.2454878,17.1793828 6.21895366,17.2062773 L4.02312195,14.7749062 L6.50201951,12.5135508 L8.7514439,15.0043008 C7.88336829,15.648293 7.06007561,16.3585195 6.29792683,17.1249609 L6.29792683,17.1249609 Z M23.4671976,10.96875 L19.5328024,10.96875 L18.7474756,8.59717969 C19.8763829,8.30376562 21.9282171,7.98271875 24.2510561,8.60340234 L23.4671976,10.96875 Z M17.481178,6.76740234 L15.7317073,5.89085156 L15.7317073,3.25866797 C15.7317073,2.63302734 16.2481268,2.109375 16.8709976,2.109375 L26.1290024,2.109375 C26.7517683,2.109375 27.2682927,2.63302734 27.2682927,3.25866797 L27.2682927,5.89074609 L25.5114805,6.77214844 C21.8544878,5.55145313 18.6713341,6.36366797 17.481178,6.76740234 Z M34.3840585,15.0049336 L36.6341122,12.5135508 L39.1130098,14.7749062 L36.8629561,17.2662891 L34.3840585,15.0049336 Z" id="Shape"></path>
                <path d="M9.43797561,31.3642951 C8.85904878,31.3653516 8.38919512,31.8378516 8.39024215,32.4200391 C8.39129268,33.002332 8.86114634,33.4747266 9.44007317,33.4736736 C10.019,33.4726172 10.4888537,33.0001172 10.4878066,32.4179297 C10.4867561,31.8346875 10.0169024,31.3632422 9.43797561,31.3642951 Z" id="Path"></path>
                <path d="M21.5073415,45.5814858 C22.0862683,45.5814858 22.556122,45.1090898 22.556122,44.5267969 C22.5550732,43.9435547 22.0852195,43.4721094 21.5062927,43.4721094 C20.9273659,43.4731641 20.4575122,43.9446094 20.4585592,44.5278516 C20.4585592,45.1100391 20.9284146,45.5824336 21.5073415,45.5814858 Z" id="Path"></path>
                <path d="M32.5121951,32.3799609 L32.5121951,32.4052734 C32.5121951,32.9874609 32.9819439,33.4599609 33.5609756,33.4599609 C34.1399024,33.4599609 34.6097561,32.9874609 34.6097561,32.4052734 L34.6097561,32.3746875 C34.6097561,31.7923945 34.1378049,31.3210547 33.5587732,31.323157 C32.9789024,31.3242187 32.5121951,31.7966133 32.5121951,32.3799609 L32.5121951,32.3799609 Z" id="Path"></path>
                <ellipse id="Oval" cx="4.66015122" cy="44.0722266" rx="1.04878049" ry="1.0546875"></ellipse>
            </g>
        </g>
    </g>
</svg>

<svg width="43" height="54" xmlns="http://www.w3.org/2000/svg"><g id="Page-1" stroke="none" stroke-width="1" fill="none" fill-rule="evenodd"><g id="Kupa-shop---design" transform="translate(-1182 -2686)" fill="#1E7960" fill-rule="nonzero"><g id="clock-(1)" transform="translate(1182 2686)"><path d="M21.5 49.798c9.542 0 17.305-7.802 17.305-17.393 0-9.59-7.763-17.393-17.305-17.393S4.195 22.814 4.195 32.405c0 9.59 7.763 17.393 17.305 17.393zm15.207-17.393c0 5.05-2.45 9.535-6.217 12.319l-7.44-11.853 9.969-4.159c.535-.223.789-.84.567-1.378a1.046 1.046 0 00-1.37-.57l-9.667 4.033V17.158c7.866.544 14.158 7.174 14.158 15.247zM20.451 17.158v15.523l8.268 13.173A15.055 15.055 0 0121.5 47.69c-8.385 0-15.207-6.856-15.207-15.284 0-8.073 6.292-14.703 14.158-15.247z" id="Shape"/><path d="M42.563 28.05a21.597 21.597 0 00-3.235-7.727c-.337-.5-.696-.987-1.074-1.46l3.117-3.451a1.059 1.059 0 00-.071-1.49l-4.033-3.68a1.045 1.045 0 00-1.48.073l-3.218 3.562a21.277 21.277 0 00-6.736-2.643l-.23-.044.839-2.529 2.34-1.174c.354-.178.584-.545.584-.944V3.259c0-1.79-1.458-3.259-3.237-3.259h-9.258c-1.78 0-3.237 1.47-3.237 3.259v3.284c0 .4.23.765.585.943l2.337 1.173.84 2.533c-.076.014-.153.027-.228.042a21.275 21.275 0 00-6.648 2.59l-3.17-3.51a1.044 1.044 0 00-1.48-.071l-4.033 3.679a1.057 1.057 0 00-.072 1.49l3.045 3.372a21.674 21.674 0 00-3.12 5.21 21.597 21.597 0 00-1.253 4.055A21.837 21.837 0 000 32.405c0 2.717.495 5.367 1.472 7.875a1.05 1.05 0 001.36.598c.538-.213.804-.826.593-1.367a19.502 19.502 0 01-1.327-7.106A19.434 19.434 0 017.78 18.616c3.048-3.06 6.929-4.977 11.127-5.538h5.186c4.198.56 8.08 2.478 11.127 5.538 3.664 3.684 5.681 8.581 5.682 13.79a19.429 19.429 0 01-5.682 13.787c-3.666 3.683-8.54 5.712-13.72 5.712a19.312 19.312 0 01-13.032-5.054 1.046 1.046 0 00-1.482.073c-.388.431-.356 1.1.072 1.49.955.87 1.992 1.658 3.085 2.343a21.398 21.398 0 003.483 1.755A21.29 21.29 0 0021.498 54h.002c1.459 0 2.917-.14 4.333-.433a21.189 21.189 0 004.035-1.255 21.438 21.438 0 006.834-4.627 21.815 21.815 0 002.626-3.198 21.55 21.55 0 003.234-7.727 21.836 21.836 0 000-8.71zM6.298 17.124l-.079.081-2.196-2.431 2.479-2.261 2.25 2.49a21.682 21.682 0 00-2.454 2.121zm17.17-6.156h-3.935l-.786-2.372c1.13-.293 3.181-.614 5.504.006l-.784 2.366zM17.48 6.767l-1.75-.876V3.259c0-.626.517-1.15 1.14-1.15h9.258c.623 0 1.14.524 1.14 1.15V5.89l-1.758.881c-3.657-1.22-6.84-.408-8.03-.005zm16.903 8.238l2.25-2.491 2.479 2.26-2.25 2.492-2.479-2.261z" id="Shape"/><path d="M9.438 31.364A1.052 1.052 0 008.39 32.42a1.053 1.053 0 001.05 1.054 1.052 1.052 0 001.048-1.056 1.051 1.051 0 00-1.05-1.054zm12.069 14.217c.58 0 1.05-.472 1.05-1.054a1.053 1.053 0 00-1.05-1.055 1.051 1.051 0 00-1.048 1.056c0 .582.47 1.054 1.048 1.053zM32.512 32.38v.025c0 .582.47 1.055 1.049 1.055s1.049-.473 1.049-1.055v-.03a1.05 1.05 0 00-1.051-1.052 1.051 1.051 0 00-1.047 1.057z" id="Path"/><ellipse id="Oval" cx="4.66" cy="44.072" rx="1.049" ry="1.055"/></g></g></g></svg>
